X: 18131
T: Humours Of Castlecomer, The
R: jig
M: 6/8
K: Ddorian
|:A,DD DCD|E^FG A2B|cBc AcA|GEG EDC|
~D3 DCD|E^FG A2B|cBA GEC|1 ~D3 DCB,:|2 ~D3 D2d||
dAd dAd|dcd e2d|cBc AcA|GED C2d|
dAd dAd|dcd e2d|cBA GEC|~D3 D2d|
dAd dAd|dcd e2d|cBc AcA|GEG EDC|
~D3 DCD|E^FG A2B|cBA GEC|~D3 DCB,||

